assets/icon-notifications.svg

<svg fill="none" height="24" viewBox="0 0 24 24" width="24" xmlns="http://www.w3.org/2000/svg" xmlns:xlink="http://www.w3.org/1999/xlink"><clipPath id="a"><path d="m0 0h24v24h-24z"/></clipPath><g clip-path="url(#a)" fill="#333"><path d="m20 10v-2c0-2.12173-.8429-4.15656-2.3431-5.65685-1.5003-1.500295-3.5352-2.34315-5.6569-2.34315-2.12173 0-4.15656.842855-5.65685 2.34315-1.5003 1.50029-2.34315 3.53512-2.34315 5.65685v2c-.02456.61-.17461 1.2083-.44078 1.7577s-.64275 1.038-1.10622 1.4353c-.8328.7096-1.35442 1.7173-1.453 2.807 0 2.5 4.112 4 11 4s11-1.5 11-4c-.0986-1.0897-.6202-2.0974-1.453-2.807-.4635-.3973-.84-.8859-1.1062-1.4353s-.4162-1.1477-.4408-1.7577z"/><path d="m9.145 21.9c.1906.608.5703 1.1392 1.0838 1.5164s1.1341.5806 1.7712.5806c.6372 0 1.2577-.2034 1.7712-.5806s.8932-.9084 1.0838-1.5164c-.894.066-1.844.1-2.855.1s-1.961-.032-2.855-.1z"/></g></svg>

<svg width="24" height="24" viewBox="0 0 24 24" fill="none" xmlns="http://www.w3.org/2000/svg">
<g clip-path="url(#clip0)">
<path d="M20 10V8C20 5.87827 19.1571 3.84344 17.6569 2.34315C16.1566 0.842855 14.1217 0 12 0C9.87827 0 7.84344 0.842855 6.34315 2.34315C4.84285 3.84344 4 5.87827 4 8V10C3.97544 10.61 3.82539 11.2083 3.55922 11.7577C3.29305 12.3071 2.91647 12.7957 2.453 13.193C1.6202 13.9026 1.09858 14.9103 1 16C1 18.5 5.112 20 12 20C18.888 20 23 18.5 23 16C22.9014 14.9103 22.3798 13.9026 21.547 13.193C21.0835 12.7957 20.707 12.3071 20.4408 11.7577C20.1746 11.2083 20.0246 10.61 20 10Z" fill="#333333"/>
<path d="M9.145 21.9C9.3356 22.508 9.7153 23.0392 10.2288 23.4164C10.7423 23.7936 11.3629 23.997 12 23.997C12.6372 23.997 13.2577 23.7936 13.7712 23.4164C14.2847 23.0392 14.6644 22.508 14.855 21.9C13.961 21.966 13.011 22 12 22C10.989 22 10.039 21.968 9.145 21.9Z" fill="#333333"/>
</g>
<defs>
<clipPath id="clip0">
<rect width="24" height="24" fill="white"/>
</clipPath>
</defs>
</svg>
